src/components/Icon/svg-icon/main/bell.svg

<svg xmlns="http://www.w3.org/2000/svg" width="24" height="24"><g fill="none" fill-rule="evenodd"><path d="M0 0h24v24H0z"/><path fill="#677078" fill-rule="nonzero" d="M12 22c1.1 0 2-.9 2-2h-4a2 2 0 002 2zm6-6v-5c0-3.07-1.64-5.64-4.5-6.32V2.5h-3v2.18C7.63 5.36 6 7.92 6 11v5l-2 2v1h16v-1l-2-2z"/></g></svg>

<svg xmlns="http://www.w3.org/2000/svg" width="24" height="24" viewBox="0 0 24 24">
  <g fill="none" fill-rule="evenodd">
    <polygon points="0 0 24 0 24 24 0 24"/>
    <path fill="#677078" fill-rule="nonzero" d="M12,22 C13.1,22 14,21.1 14,20 L10,20 C10,21.1 10.89,22 12,22 Z M18,16 L18,11 C18,7.93 16.36,5.36 13.5,4.68 L13.5,2.5 L10.5,2.5 L10.5,4.68 C7.63,5.36 6,7.92 6,11 L6,16 L4,18 L4,19 L20,19 L20,18 L18,16 Z"/>
  </g>
</svg>
